storage/app/icons/phosphoricons/fill/stamp-fill.svg

<svg xmlns="http://www.w3.org/2000/svg" fill="currentColor" viewBox="0 0 256 256"><path d="M224 224a8 8 0 0 1-8 8H40a8 8 0 0 1 0-16h176a8 8 0 0 1 8 8m-16-96h-56.43l15.71-73.29A32 32 0 0 0 136 16h-16a32 32 0 0 0-31.28 38.71L104.43 128H48a16 16 0 0 0-16 16v40a16 16 0 0 0 16 16h160a16 16 0 0 0 16-16v-40a16 16 0 0 0-16-16"/></svg>

<svg xmlns="http://www.w3.org/2000/svg" viewBox="0 0 256 256" fill="currentColor"><path d="M224,224a8,8,0,0,1-8,8H40a8,8,0,0,1,0-16H216A8,8,0,0,1,224,224Zm-16-96H151.57l15.71-73.29A32,32,0,0,0,136,16H120A32,32,0,0,0,88.72,54.71L104.43,128H48a16,16,0,0,0-16,16v40a16,16,0,0,0,16,16H208a16,16,0,0,0,16-16V144A16,16,0,0,0,208,128Z"/></svg>
